X:1
T:Title
%%score { ( 1 3 ) | 2 }
L:1/8
Q:1/4=126
M:6/4
K:Bb
V:1 treble nm="Grand Piano"
V:3 treble 
V:2 bass 
V:1
 [DF]3 [DF] [DF]2 [DG]2 [DG]2 [DA]2 | [DB]6 [DF]6 | [DF]3 [DF] [DF]2 [DB]2 [B,DG]2 [DFB]2 | A12 | %4
w: Homer~A.~Hammontree * * * * *||||
 c3 A G2 F2 G2 A2 | [DB]6 [Fd]6 | [=Ec]3 [Ed] [Ec]2 [EB]2 [EA]2 [EG]2 | F12 | %8
w: ||||
 [DF]3 [DF] [DF]2 [DG]2 [DG]2 [DA]2 | [DB]6 [DF]6 | F3 G A2 B2 c2 [G_d]2 | [^Fd]12 | %12
w: ||||
 [Gd]3 [Ge] [Fd]2 G4 GG |[M:13/8] [DF]2 [FB]2 c2 d- d3 [Ge]3 |[M:6/4] d3 c B2 A2 B2 c2 | [DB]12 |] %16
w: ||||
V:2
 [B,,B,]3 [B,,B,] [B,,B,]2 [B,,B,]2 [B,,B,]2 [B,,F,]2 | [B,,F,]6 [B,,B,]6 | %2
 [B,,B,]3 [B,,B,] [B,,B,]2 [B,,F,]2 B,,2 B,,2 | [F,CF]12 | %4
 [F,A,E]3 [F,CE] [F,B,E]2 [F,A,E]2 [F,B,E]2 [F,CE]2 | [B,,B,]6 [B,,B,]6 | %6
 [C,G,]3 [C,G,] [C,G,]2 [C,G,]2 [C,C]2 [C,B,]2 | [F,A,]12 | %8
 [B,,B,]3 [B,,B,] [B,,B,]2 [B,,B,]2 [B,,B,]2 [B,,F,]2 | [B,,F,]6 [B,,B,]6 | %10
 [F,A,E]3 [F,B,E] [F,CE]2 [G,B,E]2 [E,G,E]2 [E,G,]2 | [D,A,]12 | %12
 [G,B,]3 [G,B,] [D,B,]2 [E,B,E]4 [E,B,E][E,B,E] | %13
[M:13/8] [B,,B,]2 [D,B,]2[K:treble] [F,A,F]2 [B,F]- [B,F]3[K:bass] [E,B,]3 | %14
[M:6/4] [F,B,F]3 [F,B,E] [F,B,D]2 [F,C]2 [F,D]2 [F,E]2 | [B,,F,]12 |] %16
V:3
 x12 | x12 | x12 | x12 | x12 | x12 | x12 | z6 .E6 | x12 | x12 | x12 | x12 | x12 |[M:13/8] x13 | %14
[M:6/4] x12 | x12 |] %16

